X: 28210
T: Mrs. Crowley's
R: polka
M: 2/4
K: Gmajor
|:E/|DG EG/E/|DG E2|DG AG/A/|BA A2|
DG EG/E/|DG E2|DG AG/A/|1 BG G3/2:|2 BG GB/c/||
|:dB gB|dB gB|dB gf/g/|aA AB/c/|
dB gB|dB g2|GB AG/A/|1 BG G/A/B/c/:|2 BG G3/2||

